ExpEYES17/UserManual/schematics/osc555.svg

<?xml version="1.0" encoding="UTF-8" standalone="no"?>
<svg
   xmlns:dc="http://purl.org/dc/elements/1.1/"
   xmlns:cc="http://creativecommons.org/ns#"
   xmlns:rdf="http://www.w3.org/1999/02/22-rdf-syntax-ns#"
   xmlns:svg="http://www.w3.org/2000/svg"
   xmlns="http://www.w3.org/2000/svg"
   xmlns:sodipodi="http://sodipodi.sourceforge.net/DTD/sodipodi-0.dtd"
   xmlns:inkscape="http://www.inkscape.org/namespaces/inkscape"
   version="1.1"
   id="osc555"
   width="100%"
   height="100%"
   viewBox="-6 -6 710 524"
   sodipodi:docname="osc555.svg"
   inkscape:export-filename="/home/georgesk/developpement/expeyes/expeyes/ExpEYES17/UserManual/fr/rst/exp/schematics/osc555.png"
   inkscape:export-xdpi="40.793201"
   inkscape:export-ydpi="40.793201"
   inkscape:version="0.92.3 (2405546, 2018-03-11)">
  <metadata
     id="metadata219">
    <rdf:RDF>
      <cc:Work
         rdf:about="">
        <dc:format>image/svg+xml</dc:format>
        <dc:type
           rdf:resource="http://purl.org/dc/dcmitype/StillImage" />
        <dc:title />
      </cc:Work>
    </rdf:RDF>
  </metadata>
  <defs
     id="defs217" />
  <sodipodi:namedview
     pagecolor="#ffffff"
     bordercolor="#666666"
     borderopacity="1"
     objecttolerance="10"
     gridtolerance="10"
     guidetolerance="10"
     inkscape:pageopacity="0"
     inkscape:pageshadow="2"
     inkscape:window-width="1668"
     inkscape:window-height="1013"
     id="namedview215"
     showgrid="false"
     inkscape:zoom="1.5038168"
     inkscape:cx="355"
     inkscape:cy="262"
     inkscape:window-x="0"
     inkscape:window-y="0"
     inkscape:window-maximized="1"
     inkscape:current-layer="osc555" />
  <desc
     id="desc2">
XCircuit Version 3.7
File &quot;osc555.ps&quot; Page 1
</desc>
  <path
     style="fill:none;stroke:#000000;stroke-width:2;stroke-linecap:round;stroke-linejoin:bevel"
     inkscape:connector-curvature="0"
     id="path4"
     d="m 608,163 v 48 h 64 v -48 z" />
  <path
     style="fill:none;stroke:#000000;stroke-width:2;stroke-linecap:round;stroke-linejoin:bevel"
     inkscape:connector-curvature="0"
     id="path6"
     d="m 608,259 v 48 h 96 v -48 z" />
  <path
     style="fill:none;stroke:#000000;stroke-width:2;stroke-linecap:round;stroke-linejoin:bevel"
     inkscape:connector-curvature="0"
     id="path8"
     d="m 608,3 v 64 h 80 V 3 Z" />
  <path
     style="fill:none;stroke:#000000;stroke-width:2;stroke-linecap:round;stroke-linejoin:bevel"
     inkscape:connector-curvature="0"
     id="path10"
     d="M 272,99 V 467 H 432 V 99 Z" />
  <text
     font-size="40"
     id="text14"
     style="font-size:40px;font-family:Helvetica;fill:#000000;stroke:none"
     x="320"
     y="131">
    <tspan
       x="320"
       y="131"
       id="tspan12">8</tspan>
  </text>
  <text
     font-size="40"
     id="text20"
     style="font-size:40px;font-family:Helvetica;fill:#000000;stroke:none"
     x="384"
     y="131">
    <tspan
       x="384"
       y="131"
       id="tspan18">4</tspan>
  </text>
  <text
     font-size="40"
     id="text26"
     style="font-size:40px;font-family:Helvetica;fill:#000000;stroke:none"
     x="272"
     y="179">
    <tspan
       x="272"
       y="179"
       id="tspan24">7</tspan>
  </text>
  <text
     font-size="40"
     id="text32"
     style="font-size:40px;font-family:Helvetica;fill:#000000;stroke:none"
     x="272"
     y="307">
    <tspan
       x="272"
       y="307"
       id="tspan30">6</tspan>
  </text>
  <text
     font-size="40"
     id="text38"
     style="font-size:40px;font-family:Helvetica;fill:#000000;stroke:none"
     x="272"
     y="435">
    <tspan
       x="272"
       y="435"
       id="tspan36">2</tspan>
  </text>
  <text
     font-size="40"
     id="text44"
     style="font-size:40px;font-family:Helvetica;fill:#000000;stroke:none"
     x="400"
     y="243">
    <tspan
       x="400"
       y="243"
       id="tspan42">3</tspan>
  </text>
  <text
     font-size="40"
     id="text50"
     style="font-size:40px;font-family:Helvetica;fill:#000000;stroke:none"
     x="400"
     y="403">
    <tspan
       x="400"
       y="403"
       id="tspan48">5</tspan>
  </text>
  <text
     font-size="40"
     id="text56"
     style="font-size:40px;font-family:Helvetica;fill:#000000;stroke:none"
     x="352"
     y="451">
    <tspan
       x="352"
       y="451"
       id="tspan54">1</tspan>
  </text>
  <path
     style="fill:none;stroke:#000000;stroke-width:2;stroke-linecap:round;stroke-linejoin:bevel"
     inkscape:connector-curvature="0"
     id="path60"
     d="M 176,291 V 263" />
  <path
     style="fill:none;stroke:#000000;stroke-width:2;stroke-linecap:round;stroke-linejoin:bevel"
     inkscape:connector-curvature="0"
     id="path62"
     d="m 176,163 v 28" />
  <path
     style="fill:none;stroke:#000000;stroke-width:2;stroke-linecap:round;stroke-linejoin:bevel"
     inkscape:connector-curvature="0"
     id="path64"
     d="m 176,191 -14,6 28,12 -28,12 28,12 -28,12 28,12 -14,6" />
  <path
     style="fill:none;stroke:#000000;stroke-width:2;stroke-linecap:round;stroke-linejoin:bevel"
     inkscape:connector-curvature="0"
     id="path66"
     d="M 176,163 V 135" />
  <path
     style="fill:none;stroke:#000000;stroke-width:2;stroke-linecap:round;stroke-linejoin:bevel"
     inkscape:connector-curvature="0"
     id="path68"
     d="M 176,35 V 63" />
  <path
     style="fill:none;stroke:#000000;stroke-width:2;stroke-linecap:round;stroke-linejoin:bevel"
     inkscape:connector-curvature="0"
     id="path70"
     d="m 176,63 -14,6 28,12 -28,12 28,12 -28,12 28,12 -14,6" />
  <path
     style="fill:none;stroke:#000000;stroke-width:2;stroke-linecap:round;stroke-linejoin:bevel"
     inkscape:connector-curvature="0"
     id="path72"
     d="m 176,355 v 58" />
  <path
     style="fill:none;stroke:#000000;stroke-width:2;stroke-linecap:round;stroke-linejoin:bevel"
     inkscape:connector-curvature="0"
     id="path74"
     d="M 176,483 V 425" />
  <path
     style="fill:none;stroke:#000000;stroke-width:2;stroke-linecap:round;stroke-linejoin:bevel"
     inkscape:connector-curvature="0"
     id="path76"
     d="M 208,425 H 144" />
  <path
     style="fill:none;stroke:#000000;stroke-width:2;stroke-linecap:round;stroke-linejoin:bevel"
     inkscape:connector-curvature="0"
     id="path78"
     d="M 208,413 H 144" />
  <path
     style="fill:none;stroke:#000000;stroke-width:2;stroke-linecap:round;stroke-linejoin:bevel"
     inkscape:connector-curvature="0"
     id="path80"
     d="m 496,387 v 58" />
  <path
     style="fill:none;stroke:#000000;stroke-width:2;stroke-linecap:round;stroke-linejoin:bevel"
     inkscape:connector-curvature="0"
     id="path82"
     d="M 496,515 V 457" />
  <path
     style="fill:none;stroke:#000000;stroke-width:2;stroke-linecap:round;stroke-linejoin:bevel"
     inkscape:connector-curvature="0"
     id="path84"
     d="M 528,457 H 464" />
  <path
     style="fill:none;stroke:#000000;stroke-width:2;stroke-linecap:round;stroke-linejoin:bevel"
     inkscape:connector-curvature="0"
     id="path86"
     d="M 528,445 H 464" />
  <path
     style="fill:none;stroke:#000000;stroke-width:2;stroke-linecap:round;stroke-linejoin:bevel"
     inkscape:connector-curvature="0"
     id="path88"
     d="m 176,163 h 96" />
  <path
     style="fill:none;stroke:#000000;stroke-width:2;stroke-linecap:round;stroke-linejoin:bevel"
     inkscape:connector-curvature="0"
     id="path90"
     d="m 176,291 h 96" />
  <path
     style="fill:none;stroke:#000000;stroke-width:2;stroke-linecap:round;stroke-linejoin:bevel"
     inkscape:connector-curvature="0"
     id="path92"
     d="M 336,99 V 35 H 176" />
  <path
     style="fill:none;stroke:#000000;stroke-width:2;stroke-linecap:round;stroke-linejoin:bevel"
     inkscape:connector-curvature="0"
     id="path94"
     d="m 336,35 h 64 v 64" />
  <path
     style="fill:none;stroke:#000000;stroke-width:2;stroke-linecap:round;stroke-linejoin:bevel"
     inkscape:connector-curvature="0"
     id="path96"
     d="m 176,355 h 96" />
  <path
     style="fill:none;stroke:#000000;stroke-width:2;stroke-linecap:round;stroke-linejoin:bevel"
     inkscape:connector-curvature="0"
     id="path98"
     d="m 176,291 v 64" />
  <path
     style="fill:none;stroke:#000000;stroke-width:2;stroke-linecap:round;stroke-linejoin:bevel"
     inkscape:connector-curvature="0"
     id="path100"
     d="m 352,467 v 48 H 176 v -32" />
  <path
     style="fill:none;stroke:#000000;stroke-width:2;stroke-linecap:round;stroke-linejoin:bevel"
     inkscape:connector-curvature="0"
     id="path102"
     d="m 432,387 h 64" />
  <path
     style="fill:none;stroke:#000000;stroke-width:2;stroke-linecap:round;stroke-linejoin:bevel"
     inkscape:connector-curvature="0"
     id="path104"
     d="M 352,515 H 496" />
  <path
     style="fill:none;stroke:#000000;stroke-width:2;stroke-linecap:round;stroke-linejoin:bevel"
     inkscape:connector-curvature="0"
     id="path106"
     d="m 608,35 c 1,0 -128,-80 -208,0" />
  <path
     style="fill:none;stroke:#000000;stroke-width:2;stroke-linecap:round;stroke-linejoin:bevel"
     inkscape:connector-curvature="0"
     id="path108"
     d="m 592,419 v 48 h 96 v -48 z" />
  <path
     style="fill:none;stroke:#000000;stroke-width:2;stroke-linecap:round;stroke-linejoin:bevel"
     inkscape:connector-curvature="0"
     id="path110"
     d="m 592,451 c 1,0 -32,80 -96,64" />
  <path
     style="fill:none;stroke:#000000;stroke-width:2;stroke-linecap:round;stroke-linejoin:bevel"
     inkscape:connector-curvature="0"
     id="path112"
     d="m 432,227 h 32" />
  <path
     style="fill:none;stroke:#000000;stroke-width:2;stroke-linecap:round;stroke-linejoin:bevel"
     inkscape:connector-curvature="0"
     id="path114"
     d="m 464,227 c 1,0 80,0 144,64" />
  <path
     style="fill:none;stroke:#000000;stroke-width:2;stroke-linecap:round;stroke-linejoin:bevel"
     inkscape:connector-curvature="0"
     id="path116"
     d="m 480,227 c 1,0 80,-96 128,-48" />
  <path
     style="fill:none;stroke:#000000;stroke-width:2;stroke-linecap:round;stroke-linejoin:bevel"
     inkscape:connector-curvature="0"
     id="path118"
     d="m 176,355 c 1,0 -48,-64 -112,-32" />
  <path
     style="fill:none;stroke:#000000;stroke-width:2;stroke-linecap:round;stroke-linejoin:bevel"
     inkscape:connector-curvature="0"
     id="path120"
     d="m 0,291 v 48 h 64 v -48 z" />
  <text
     font-size="40"
     id="text124"
     style="font-size:40px;font-family:Helvetica;fill:#000000;stroke:none"
     x="352"
     y="339">
    <tspan
       x="299"
       y="339"
       id="tspan122">IC555</tspan>
  </text>
  <text
     font-size="40"
     id="text130"
     style="font-size:40px;font-family:Helvetica;fill:#000000;stroke:none"
     x="608"
     y="51">
    <tspan
       x="608"
       y="51"
       id="tspan128" />
  </text>
  <text
     font-size="40"
     id="text136"
     style="font-size:40px;font-family:Helvetica;fill:#000000;stroke:none"
     x="623.26721"
     y="49.279999">
    <tspan
       x="623.26721"
       y="49.279999"
       id="tspan134">5V</tspan>
  </text>
  <text
     font-size="40"
     id="text142"
     style="font-size:40px;font-family:Helvetica;fill:#000000;stroke:none"
     x="640"
     y="35">
    <tspan
       x="640"
       y="35"
       id="tspan140" />
  </text>
  <text
     font-size="40"
     id="text148"
     style="font-size:40px;font-family:Helvetica;fill:#000000;stroke:none"
     x="608"
     y="195">
    <tspan
       x="608"
       y="195"
       id="tspan146" />
  </text>
  <text
     font-size="40"
     id="text154"
     style="font-size:40px;font-family:Helvetica;fill:#000000;stroke:none"
     x="619.3606"
     y="201.58">
    <tspan
       x="619.3606"
       y="201.58"
       id="tspan152">A1</tspan>
  </text>
  <text
     font-size="40"
     id="text160"
     style="font-size:40px;font-family:Helvetica;fill:#000000;stroke:none"
     x="623.78003"
     y="297.57999">
    <tspan
       x="623.78003"
       y="297.57999"
       id="tspan158">IN2</tspan>
  </text>
  <text
     font-size="40"
     id="text166"
     style="font-size:40px;font-family:Helvetica;fill:#000000;stroke:none"
     x="608"
     y="451">
    <tspan
       x="608"
       y="451"
       id="tspan164" />
  </text>
  <text
     font-size="40"
     id="text172"
     style="font-size:40px;font-family:Helvetica;fill:#000000;stroke:none"
     x="595.78003"
     y="457.57999">
    <tspan
       x="595.78003"
       y="457.57999"
       id="tspan170">GND</tspan>
  </text>
  <text
     font-size="40"
     id="text178"
     style="font-size:40px;font-family:Helvetica;fill:#000000;stroke:none"
     y="329.57999"
     x="8.0806246">
    <tspan
       x="8.0806246"
       y="329.57999"
       id="tspan176">A2</tspan>
  </text>
  <text
     font-size="40"
     id="text184"
     style="font-size:40px;font-family:Helvetica;fill:#000000;stroke:none"
     x="512"
     y="387">
    <tspan
       x="512"
       y="387"
       id="tspan182">0.1 µF</tspan>
  </text>
  <text
     font-size="40"
     id="text190"
     style="font-size:40px;font-family:Helvetica;fill:#000000;stroke:none"
     x="74.139061"
     y="467.66245">
    <tspan
       x="74.139061"
       y="467.66245"
       id="tspan188">1 µF</tspan>
  </text>
  <text
     font-size="40"
     id="text196"
     style="font-size:40px;font-family:Helvetica;fill:#000000;stroke:none"
     x="96"
     y="99">
    <tspan
       x="96"
       y="99"
       id="tspan194" />
  </text>
  <text
     font-size="40"
     id="text202"
     style="font-size:40px;font-family:Helvetica;fill:#000000;stroke:none"
     x="45.552464"
     y="110.2617">
    <tspan
       x="45.552464"
       y="110.2617"
       id="tspan200">10 kΩ</tspan>
  </text>
  <text
     font-size="40"
     id="text202-3"
     style="font-size:40px;font-family:Helvetica;fill:#000000;stroke:none"
     x="45.552464"
     y="250.97765">
    <tspan
       x="45.552464"
       y="250.97765"
       id="tspan200-6">10 kΩ</tspan>
  </text>
</svg>

<svg xmlns="http://www.w3.org/2000/svg"
   xmlns:xlink="http://www.w3.org/1999/xlink"
   version="1.1"
   id="osc555" width="100%" height="100%"  viewBox="-6 -6 710 524">
<desc>
XCircuit Version 3.7
File "osc555.ps" Page 1
</desc>
<g stroke="black">
<path d="M608,163 L608,211 672,211 672,163 z" fill="none" stroke-width="2" stroke-linejoin="bevel" stroke-linecap="round" stroke="#000000" />
<path d="M608,259 L608,307 704,307 704,259 z" fill="none" stroke-width="2" stroke-linejoin="bevel" stroke-linecap="round" stroke="#000000" />
<path d="M608,3 L608,67 688,67 688,3 z" fill="none" stroke-width="2" stroke-linejoin="bevel" stroke-linecap="round" stroke="#000000" />
<path d="M272,99 L272,467 432,467 432,99 z" fill="none" stroke-width="2" stroke-linejoin="bevel" stroke-linecap="round" stroke="#000000" />
<g transform="matrix(   1    0   -0    1 320 131)" fill="#000000" >
<text stroke="none" font-family="Helvetica" font-size="40" ><tspan x="0" y="0">8</tspan>
</text></g>
<g transform="matrix(   1    0   -0    1 384 131)" fill="#000000" >
<text stroke="none" font-family="Helvetica" font-size="40" ><tspan x="0" y="0">4</tspan>
</text></g>
<g transform="matrix(   1    0   -0    1 272 179)" fill="#000000" >
<text stroke="none" font-family="Helvetica" font-size="40" ><tspan x="0" y="0">7</tspan>
</text></g>
<g transform="matrix(   1    0   -0    1 272 307)" fill="#000000" >
<text stroke="none" font-family="Helvetica" font-size="40" ><tspan x="0" y="0">6</tspan>
</text></g>
<g transform="matrix(   1    0   -0    1 272 435)" fill="#000000" >
<text stroke="none" font-family="Helvetica" font-size="40" ><tspan x="0" y="0">2</tspan>
</text></g>
<g transform="matrix(   1    0   -0    1 400 243)" fill="#000000" >
<text stroke="none" font-family="Helvetica" font-size="40" ><tspan x="0" y="0">3</tspan>
</text></g>
<g transform="matrix(   1    0   -0    1 400 403)" fill="#000000" >
<text stroke="none" font-family="Helvetica" font-size="40" ><tspan x="0" y="0">5</tspan>
</text></g>
<g transform="matrix(   1    0   -0    1 352 451)" fill="#000000" >
<text stroke="none" font-family="Helvetica" font-size="40" ><tspan x="0" y="0">1</tspan>
</text></g>
<path d="M176,291 L176,263 " fill="none" stroke-width="2" stroke-linejoin="bevel" stroke-linecap="round" stroke="#000000" />
<path d="M176,163 L176,191 " fill="none" stroke-width="2" stroke-linejoin="bevel" stroke-linecap="round" stroke="#000000" />
<path d="M176,191 L162,197 190,209 162,221 190,233 162,245 190,257 176,263 " fill="none" stroke-width="2" stroke-linejoin="bevel" stroke-linecap="round" stroke="#000000" />
<path d="M176,163 L176,135 " fill="none" stroke-width="2" stroke-linejoin="bevel" stroke-linecap="round" stroke="#000000" />
<path d="M176,35 L176,63 " fill="none" stroke-width="2" stroke-linejoin="bevel" stroke-linecap="round" stroke="#000000" />
<path d="M176,63 L162,69 190,81 162,93 190,105 162,117 190,129 176,135 " fill="none" stroke-width="2" stroke-linejoin="bevel" stroke-linecap="round" stroke="#000000" />
<path d="M176,355 L176,413 " fill="none" stroke-width="2" stroke-linejoin="bevel" stroke-linecap="round" stroke="#000000" />
<path d="M176,483 L176,425 " fill="none" stroke-width="2" stroke-linejoin="bevel" stroke-linecap="round" stroke="#000000" />
<path d="M208,425 L144,425 " fill="none" stroke-width="2" stroke-linejoin="bevel" stroke-linecap="round" stroke="#000000" />
<path d="M208,413 L144,413 " fill="none" stroke-width="2" stroke-linejoin="bevel" stroke-linecap="round" stroke="#000000" />
<path d="M496,387 L496,445 " fill="none" stroke-width="2" stroke-linejoin="bevel" stroke-linecap="round" stroke="#000000" />
<path d="M496,515 L496,457 " fill="none" stroke-width="2" stroke-linejoin="bevel" stroke-linecap="round" stroke="#000000" />
<path d="M528,457 L464,457 " fill="none" stroke-width="2" stroke-linejoin="bevel" stroke-linecap="round" stroke="#000000" />
<path d="M528,445 L464,445 " fill="none" stroke-width="2" stroke-linejoin="bevel" stroke-linecap="round" stroke="#000000" />
<path d="M176,163 L272,163 " fill="none" stroke-width="2" stroke-linejoin="bevel" stroke-linecap="round" stroke="#000000" />
<path d="M176,291 L272,291 " fill="none" stroke-width="2" stroke-linejoin="bevel" stroke-linecap="round" stroke="#000000" />
<path d="M336,99 L336,35 176,35 " fill="none" stroke-width="2" stroke-linejoin="bevel" stroke-linecap="round" stroke="#000000" />
<path d="M336,35 L400,35 400,99 " fill="none" stroke-width="2" stroke-linejoin="bevel" stroke-linecap="round" stroke="#000000" />
<path d="M176,355 L272,355 " fill="none" stroke-width="2" stroke-linejoin="bevel" stroke-linecap="round" stroke="#000000" />
<path d="M176,291 L176,355 " fill="none" stroke-width="2" stroke-linejoin="bevel" stroke-linecap="round" stroke="#000000" />
<path d="M352,467 L352,515 176,515 176,483 " fill="none" stroke-width="2" stroke-linejoin="bevel" stroke-linecap="round" stroke="#000000" />
<path d="M432,387 L496,387 " fill="none" stroke-width="2" stroke-linejoin="bevel" stroke-linecap="round" stroke="#000000" />
<path d="M352,515 L496,515 " fill="none" stroke-width="2" stroke-linejoin="bevel" stroke-linecap="round" stroke="#000000" />
<path d="M608,35 C609,35 480,-45 400,35 " fill="none" stroke-width="2" stroke-linejoin="bevel" stroke-linecap="round" stroke="#000000" />
<path d="M592,419 L592,467 688,467 688,419 z" fill="none" stroke-width="2" stroke-linejoin="bevel" stroke-linecap="round" stroke="#000000" />
<path d="M592,451 C593,451 560,531 496,515 " fill="none" stroke-width="2" stroke-linejoin="bevel" stroke-linecap="round" stroke="#000000" />
<path d="M432,227 L464,227 " fill="none" stroke-width="2" stroke-linejoin="bevel" stroke-linecap="round" stroke="#000000" />
<path d="M464,227 C465,227 544,227 608,291 " fill="none" stroke-width="2" stroke-linejoin="bevel" stroke-linecap="round" stroke="#000000" />
<path d="M480,227 C481,227 560,131 608,179 " fill="none" stroke-width="2" stroke-linejoin="bevel" stroke-linecap="round" stroke="#000000" />
<path d="M176,355 C177,355 128,291 64,323 " fill="none" stroke-width="2" stroke-linejoin="bevel" stroke-linecap="round" stroke="#000000" />
<path d="M0,291 L0,339 64,339 64,291 z" fill="none" stroke-width="2" stroke-linejoin="bevel" stroke-linecap="round" stroke="#000000" />
<g transform="matrix(   1    0   -0    1 352 339)" fill="#000000" >
<text stroke="none" font-family="Helvetica" font-size="40" ><tspan x="-53" y="0">IC555</tspan>
</text></g>
<g transform="matrix(   1    0   -0    1 608  51)" fill="#000000" >
<text stroke="none" font-family="Helvetica" font-size="40" ><tspan x="0" y="0"></tspan>
</text></g>
<g transform="matrix(   1    0   -0    1 624  51)" fill="#000000" >
<text stroke="none" font-family="Helvetica" font-size="40" ><tspan x="0" y="0">5V</tspan>
</text></g>
<g transform="matrix(   1    0   -0    1 640  35)" fill="#000000" >
<text stroke="none" font-family="Helvetica" font-size="40" ><tspan x="0" y="0"></tspan>
</text></g>
<g transform="matrix(   1    0   -0    1 608 195)" fill="#000000" >
<text stroke="none" font-family="Helvetica" font-size="40" ><tspan x="0" y="0"></tspan>
</text></g>
<g transform="matrix(   1    0   -0    1 624 195)" fill="#000000" >
<text stroke="none" font-family="Helvetica" font-size="40" ><tspan x="0" y="0">A1</tspan>
</text></g>
<g transform="matrix(   1    0   -0    1 624 291)" fill="#000000" >
<text stroke="none" font-family="Helvetica" font-size="40" ><tspan x="0" y="0">IN2</tspan>
</text></g>
<g transform="matrix(   1    0   -0    1 608 451)" fill="#000000" >
<text stroke="none" font-family="Helvetica" font-size="40" ><tspan x="0" y="0"></tspan>
</text></g>
<g transform="matrix(   1    0   -0    1 592 451)" fill="#000000" >
<text stroke="none" font-family="Helvetica" font-size="40" ><tspan x="0" y="0">GND</tspan>
</text></g>
<g transform="matrix(   1    0   -0    1   0 323)" fill="#000000" >
<text stroke="none" font-family="Helvetica" font-size="40" ><tspan x="0" y="0">A2</tspan>
</text></g>
<g transform="matrix(   1    0   -0    1 512 387)" fill="#000000" >
<text stroke="none" font-family="Helvetica" font-size="40" ><tspan x="0" y="0">.1uF</tspan>
</text></g>
<g transform="matrix(   1    0   -0    1  96 467)" fill="#000000" >
<text stroke="none" font-family="Helvetica" font-size="40" ><tspan x="0" y="0">1uF</tspan>
</text></g>
<g transform="matrix(   1    0   -0    1  96  99)" fill="#000000" >
<text stroke="none" font-family="Helvetica" font-size="40" ><tspan x="0" y="0"></tspan>
</text></g>
<g transform="matrix(   1    0   -0    1  80  99)" fill="#000000" >
<text stroke="none" font-family="Helvetica" font-size="40" ><tspan x="0" y="0">10K</tspan>
</text></g>
<g transform="matrix(   1    0   -0    1  80 243)" fill="#000000" >
<text stroke="none" font-family="Helvetica" font-size="40" ><tspan x="0" y="0">10K</tspan>
</text></g>
</g>
</svg>
